lib/healthicons/icons/solid/specialties/admissions.svg

<svg fill="none" height="48" viewBox="0 0 48 48" width="48" xmlns="http://www.w3.org/2000/svg"><path clip-rule="evenodd" d="m6 9c0-1.65685 1.34315-3 3-3h30c1.6569 0 3 1.34315 3 3v30c0 1.6569-1.3431 3-3 3h-30c-1.65685 0-3-1.3431-3-3zm15.5191 5.5819h-4.5191v18.8167h4.5191zm0-2h-6.5191v22.8167h6.5191v1.8142c0 .6825.6687 1.1645 1.3162.9486l8.8651-2.955c.4083-.1361.6838-.5182.6838-.9487v-20.2886c0-.4304-.2755-.8126-.6838-.9487l-8.8651-2.955c-.6475-.21585-1.3162.2661-1.3162.9487zm4.346 10.8072c0 .8001-.3243 1.4487-.7243 1.4487-.4001 0-.7244-.6486-.7244-1.4487s.3243-1.4487.7244-1.4487c.4 0 .7243.6486.7243 1.4487z" fill="#333" fill-rule="evenodd"/></svg>

<svg width="48" height="48" viewBox="0 0 48 48" fill="none" xmlns="http://www.w3.org/2000/svg">
<path fill-rule="evenodd" clip-rule="evenodd" d="M6 9C6 7.34315 7.34315 6 9 6H39C40.6569 6 42 7.34315 42 9V39C42 40.6569 40.6569 42 39 42H9C7.34315 42 6 40.6569 6 39V9ZM21.5191 14.5819H17V33.3986H21.5191V14.5819ZM21.5191 12.5819H15V35.3986H21.5191V37.2128C21.5191 37.8953 22.1878 38.3773 22.8353 38.1614L31.7004 35.2064C32.1087 35.0703 32.3842 34.6882 32.3842 34.2577V13.9691C32.3842 13.5387 32.1087 13.1565 31.7004 13.0204L22.8353 10.0654C22.1878 9.84955 21.5191 10.3315 21.5191 11.0141V12.5819ZM25.8651 23.3891C25.8651 24.1892 25.5408 24.8378 25.1408 24.8378C24.7407 24.8378 24.4164 24.1892 24.4164 23.3891C24.4164 22.589 24.7407 21.9404 25.1408 21.9404C25.5408 21.9404 25.8651 22.589 25.8651 23.3891Z" fill="#333333"/>
</svg>
